icons/play-list-add-fill.svg

<svg xmlns="http://www.w3.org/2000/svg" viewBox="0 0 24 24">
    <g>
        <path fill="none" d="M0 0h24v24H0z"/>
        <path d="M2 18h10v2H2v-2zm0-7h20v2H2v-2zm0-7h20v2H2V4zm16 14v-3h2v3h3v2h-3v3h-2v-3h-3v-2h3z"/>
    </g>
</svg>

<svg viewBox="0 0 24 24" fill="currentColor" xmlns="http://www.w3.org/2000/svg"><path d="M2 18H12V20H2V18ZM2 11H22V13H2V11ZM2 4H22V6H2V4ZM18 18V15H20V18H23V20H20V23H18V20H15V18H18Z"/></svg>
